!!!OTL: I BIN E BERGMA WOHLGEMUTH
!!!ARE: Europa, Mitteleuropa, Schweiz, Kanton Bern, Siebenthal
!!!SCT: E1473
!!!YEM: Copyright 1995, estate of Helmut Schaffrath.
**kern
*ICvox
*Ivox
*M3/8
*k[f#]
*G:
{8d
=1
4g
8a
=2
8b
8a
8g
=3
8dd
8cc
8b
=4
4a
8r}
=5
{8b
8g
8a
=6
8b
8g
8a
=7
8b
8g
8d
=8
4r}
{8dd
=9
8.g
16a
8b
=10
4a}
{8dd
=11
8.g
16a
8b
=12
4a}
{8g
=13
8b
8b
8g
=14
8a
8a}
{8g
=15
8b
8b
8g
=16
8a
8a}
{8g
=17
4a
8d
=18
4d}
{8d
=19
4g
8a
=20
8b
8a
8g
=21
8.dd
16cc
8b
=22
4.a}
=23
{8.dd
16cc
8b
=24
4a}
{8a
=25
4dd
8b
=26
4cc#
8a
=27
8dd
8cc
8b
=28
4a}
{8a
=29
8cc
8cc
8b
=30
4b
8g
=31
8a
8g
8f#
=32
4g
8r}
=33
{4dd
16ee
16dd
=34
4dd
16ee
16dd
=35
4dd
16dd
16cc
=36
8b
8g
16r}
{16g
=37
8.a
16b
8a
=38
4a
8a
=39
8.a
16b
8a
=40
8.a
16d
8d}
=41
{8b
8g
8g
=42
8a
8d
8d
=43
8b
8g
8g
=44
16a
16d
8d}
{8d
=45
8.g
16a
8g
=46
8.b
16a
8g
=47
4.dd
=48
4cc
8a
=49
16b
16g
8g}
==
!!!AGN: Staende -, Hirten -, Alpen - Lied, Kuhreihen
!!!ONB: ESAC (Essen Associative Code) Database: ERK3
!!!AMT: simple triple
!!!AIN: vox
!!!EED: Helmut Schaffrath
!!!EEV: 1.0
*-
